X:519
T:The Tullamore piper
T:Levantine's barrel
R:Hornpipe
O:Ireland
B:O'Neill's 1773
B:New England Fiddler's Repertoire
S:My arrangement from various sources
Z:Transcription, arrangement, chords:Mike Long
M:4/4
L:1/8
K:G
BA|\
"G"GBDG B2BA|G2ed ^cdAG|"D"FADF ADFA|"G"GBed "D"^cd=cA|\
"G"GBDG B2BA|
G2ed ^cdAG|"D"FADF ADFA|"G"G2"D"B2 "G"G2:|\
|:d2|\
"C"e2f2 ~g2fe|"G"ed^cd B2AG|
"D"FADF ADFA|"G"GBed "D"^cd=cA|\
"C"e2f2 ~g2fe|"G"ed^cd B2AG|"D"FADF ADFA|"G"G2"D"B2 "G"G2:|
